src/img/logo.svg

<svg width="208" height="38" viewBox="0 0 208 38" fill="none" xmlns="http://www.w3.org/2000/svg">
<path fill-rule="evenodd" clip-rule="evenodd" d="M0.253906 22.9743C0.253906 26.1836 3.21601 28.45 7.03663 28.45C11.5687 28.45 13.7008 25.5669 13.7008 23.0791C13.7008 19.1009 9.79003 18.2057 7.45165 17.6582C4.72671 17.0082 3.12589 16.4369 3.12589 14.4228C3.12589 12.7801 4.19073 11.0659 6.88485 11.0659C10.2051 11.0659 10.9165 13.2086 10.9735 14.3728H13.1648C13.1055 11.9349 11.2106 9.39941 7.15284 9.39941C2.62075 9.39941 0.934551 12.3325 0.934551 14.3989C0.934551 18.6271 5.76072 18.8009 8.57341 19.7199C9.52205 20.0199 11.5071 20.815 11.5071 23.0529C11.5071 25.017 9.87778 26.7811 6.97497 26.7811C2.88873 26.7811 2.50217 23.7243 2.44288 22.972L0.253906 22.9743Z" fill="#474747"/>
<path fill-rule="evenodd" clip-rule="evenodd" d="M18.4889 28.3257H20.5237V20.7645H24.923C30.0646 20.7645 31.9334 17.9409 31.9334 15.1412C31.9334 12.9985 30.8899 9.4917 24.923 9.4917H18.4889V28.3257ZM20.5237 11.1963H24.9443C28.5729 11.1963 29.8938 13.1295 29.8938 15.1412C29.8938 17.1005 28.5729 19.0599 24.9443 19.0599H20.5237V11.1963Z" fill="#474747"/>
<path fill-rule="evenodd" clip-rule="evenodd" d="M33.2805 28.3398H35.0023L37.3074 22.0285H44.7139L47.0191 28.3398H48.7408L41.9154 9.50586H40.1486L33.271 28.3398H33.2805ZM37.9312 20.3215L41.0332 11.6938L44.0901 20.3215H37.9312Z" fill="#474747"/>
<path fill-rule="evenodd" clip-rule="evenodd" d="M67.2179 14.3841C65.9017 11.2249 63.2455 9.39648 59.9751 9.39648C55.4311 9.39648 51.8192 13.3723 51.8192 18.8051C51.8192 24.3832 55.4952 28.309 60.1031 28.309C63.1862 28.309 65.8163 26.4044 67.2819 23.2238H65.4131C64.1396 25.5926 62.0146 26.6544 60.1031 26.6544C56.3655 26.6544 53.3916 23.2976 53.3916 18.798C53.3916 14.6246 56.0454 11.044 59.9964 11.044C63.3736 11.044 64.9246 13.6128 65.3491 14.377L67.2179 14.3841Z" fill="#474747"/>
<path d="M60.103 28.395C55.3338 28.395 51.7361 24.2716 51.7361 18.8054C51.7361 13.394 55.2792 9.31348 59.975 9.31348C63.2952 9.31348 65.9608 11.149 67.296 14.3535L67.3435 14.4701H65.2992L65.2754 14.4273C64.5924 13.1964 63.0011 11.1371 59.9963 11.1371C56.28 11.1371 53.4744 14.432 53.4744 18.8054C53.4744 23.1788 56.3868 26.5785 60.103 26.5785C62.2374 26.5785 64.1987 25.312 65.3395 23.1907L65.3632 23.1455H67.4122L67.3577 23.2669C65.8565 26.5238 63.2122 28.395 60.103 28.395ZM59.975 9.48251C55.3741 9.48251 51.9116 13.4893 51.9116 18.8054C51.9116 24.1764 55.4358 28.226 60.1101 28.226C63.1126 28.226 65.6739 26.4357 67.1561 23.3074H65.4699C64.2841 25.4501 62.2967 26.7404 60.1101 26.7404C56.299 26.7404 53.3156 23.255 53.3156 18.8054C53.3156 14.3559 56.1899 10.9681 60.0034 10.9681C63.058 10.9681 64.692 13.0346 65.4059 14.3011H67.0968C65.7687 11.2371 63.1813 9.48251 59.975 9.48251Z" fill="#474747"/>
<path fill-rule="evenodd" clip-rule="evenodd" d="M71.999 28.3642H85.4885V26.6501H74.4583V19.6912H85.1233V17.9771H74.4583V11.1467H85.4885V9.43262H71.999V28.3642Z" fill="#474747"/>
<path fill-rule="evenodd" clip-rule="evenodd" d="M107.632 0.918457L104.668 2.82304L107.639 4.42051V0.925599L107.632 0.918457ZM103.017 3.87056L107.641 6.35843L107.665 17.5717L99.7749 12.6912L99.8271 5.91323L103.017 3.87056ZM99.2864 14.3981L92.8025 17.1836V20.5381L99.2722 23.5616L106.849 19.0763L99.284 14.3981H99.2864ZM99.8034 25.24L107.672 20.5809L107.694 30.73L103.045 34.1511L99.7678 32.1941L99.8034 25.24ZM104.63 35.0986L107.713 36.9318V32.844L104.63 35.0986ZM97.4816 24.6234L92.8072 27.3922V22.4355L97.4864 24.6234H97.4816ZM93.9242 28.7159L98.0911 31.2037L98.1172 26.2351L93.9361 28.7206L93.9242 28.7159ZM98.1362 6.98932L94.4033 9.37005L98.1006 11.6556L98.1362 6.97979V6.98932ZM92.8191 10.389L97.5148 13.2935L92.812 15.3171V10.4128L92.8191 10.389Z" fill="#B3B3B3"/>
<path fill-rule="evenodd" clip-rule="evenodd" d="M109.458 0.913574L109.468 14.1028L115.793 18.3143L124.345 13.2243L124.354 10.4579L109.458 0.913574Z" fill="url(#paint0_linear)"/>
<path fill-rule="evenodd" clip-rule="evenodd" d="M124.38 15.5503L109.496 24.3447V37.0864L124.363 29.1252L124.38 15.5503Z" fill="url(#paint1_linear)"/>
<path fill-rule="evenodd" clip-rule="evenodd" d="M146.092 14.5556C144.773 11.3988 142.119 9.57275 138.849 9.57275C134.303 9.57275 130.693 13.5438 130.693 18.9719C130.693 24.5475 134.367 28.4686 138.975 28.4686C142.058 28.4686 144.69 26.564 146.153 23.3881H144.285C143.011 25.7546 140.886 26.8164 138.975 26.8164C135.237 26.8164 132.263 23.4619 132.263 18.9719C132.263 14.8032 134.919 11.225 138.87 11.225C142.247 11.225 143.796 13.7914 144.223 14.558L146.092 14.5556Z" fill="#275FA1"/>
<path fill-rule="evenodd" clip-rule="evenodd" d="M149.248 28.3685H150.973L153.275 22.0358H160.684L162.989 28.3685H164.711L157.883 9.47266H156.119L149.241 28.3685H149.248ZM153.902 20.324L157.001 11.6677L160.06 20.324H153.902Z" fill="#275FA1"/>
<path fill-rule="evenodd" clip-rule="evenodd" d="M169.326 28.4352H175.132C182.055 28.4352 182.771 24.5404 182.771 23.0453C182.771 21.0598 181.713 18.8933 179.081 18.1981C180.195 17.5791 181.625 16.4435 181.625 14.3889C181.625 9.59415 176.82 9.36084 174.617 9.36084H169.326V28.4352ZM171.442 26.7068V19.2552H175.132C177.221 19.2552 180.624 19.5908 180.624 23.0643C180.624 26.3973 177.107 26.6997 175.132 26.6997L171.442 26.7068ZM171.442 17.5267V11.0797H174.617C176.164 11.0797 179.51 11.1559 179.51 14.3032C179.51 17.2434 176.391 17.5267 174.617 17.5267H171.442Z" fill="#275FA1"/>
<path d="M189.499 9.40381H187.381V28.3973H189.499V9.40381Z" fill="#275FA1"/>
<path fill-rule="evenodd" clip-rule="evenodd" d="M194.176 28.428H195.857V11.6915L205.951 28.428H207.632V9.375H205.951V25.1854L196.448 9.375H194.176V28.428Z" fill="#275FA1"/>
<defs>
<linearGradient id="paint0_linear" x1="123.289" y1="0.913571" x2="106.193" y2="11.017" gradientUnits="userSpaceOnUse">
<stop stop-color="#39AFFD"/>
<stop offset="1" stop-color="#3A76FF"/>
</linearGradient>
<linearGradient id="paint1_linear" x1="123.315" y1="15.5503" x2="104.541" y2="24.5082" gradientUnits="userSpaceOnUse">
<stop stop-color="#39AFFD"/>
<stop offset="1" stop-color="#3A76FF"/>
</linearGradient>
</defs>
</svg>

<svg xmlns="http://www.w3.org/2000/svg" fill="none" viewBox="0 0 208 38"><path fill="#474747" fill-rule="evenodd" d="M.254 22.974c0 3.21 2.962 5.476 6.783 5.476 4.532 0 6.664-2.883 6.664-5.37 0-3.98-3.911-4.874-6.25-5.422-2.724-.65-4.325-1.221-4.325-3.235 0-1.643 1.065-3.357 3.759-3.357 3.32 0 4.031 2.143 4.088 3.307h2.192c-.06-2.438-1.954-4.974-6.012-4.974-4.532 0-6.218 2.934-6.218 5 0 4.228 4.826 4.402 7.638 5.32.949.3 2.934 1.096 2.934 3.334 0 1.964-1.63 3.728-4.532 3.728-4.086 0-4.473-3.057-4.532-3.809l-2.19.002zM18.489 28.326h2.035v-7.561h4.399c5.142 0 7.01-2.824 7.01-5.624 0-2.143-1.043-5.65-7.01-5.65h-6.434v18.835zm2.035-17.13h4.42c3.629 0 4.95 1.934 4.95 3.945 0 1.96-1.321 3.919-4.95 3.919h-4.42v-7.864zM33.28 28.34h1.722l2.305-6.311h7.407l2.305 6.31h1.722L41.915 9.507H40.15L33.27 28.34h.01zm4.651-8.018l3.102-8.628 3.057 8.627h-6.159zM67.218 14.384c-1.316-3.16-3.973-4.988-7.243-4.988-4.544 0-8.156 3.976-8.156 9.41 0 5.577 3.676 9.503 8.284 9.503 3.083 0 5.713-1.905 7.179-5.085h-1.869c-1.273 2.369-3.398 3.43-5.31 3.43-3.738 0-6.711-3.356-6.711-7.856 0-4.173 2.653-7.754 6.604-7.754 3.378 0 4.929 2.569 5.353 3.333l1.869.007z" clip-rule="evenodd"/><path fill="#474747" d="M60.103 28.395c-4.77 0-8.367-4.123-8.367-9.59 0-5.411 3.543-9.492 8.239-9.492 3.32 0 5.986 1.836 7.321 5.04l.047.117H65.3l-.024-.043c-.683-1.23-2.274-3.29-5.279-3.29-3.716 0-6.522 3.295-6.522 7.668 0 4.374 2.913 7.773 6.629 7.773 2.134 0 4.096-1.266 5.236-3.387l.024-.046h2.05l-.055.122c-1.502 3.257-4.146 5.128-7.255 5.128zm-.128-18.912c-4.6 0-8.063 4.006-8.063 9.322 0 5.371 3.524 9.421 8.198 9.421 3.003 0 5.564-1.79 7.046-4.919H65.47c-1.186 2.143-3.173 3.433-5.36 3.433-3.811 0-6.794-3.485-6.794-7.935 0-4.45 2.874-7.837 6.687-7.837 3.055 0 4.689 2.067 5.403 3.333h1.69c-1.327-3.064-3.915-4.818-7.121-4.818z"/><path fill="#474747" fill-rule="evenodd" d="M71.999 28.364h13.49V26.65h-11.03v-6.959h10.664v-1.714H74.458v-6.83h11.03V9.433H72v18.931z" clip-rule="evenodd"/><path fill="#B3B3B3" fill-rule="evenodd" d="M107.632.918l-2.964 1.905 2.971 1.598V.926l-.007-.008zm-4.615 2.953l4.624 2.487.024 11.214-7.89-4.88.052-6.779 3.19-2.042zm-3.73 10.527l-6.485 2.786v3.354l6.47 3.024 7.577-4.486-7.565-4.678h.002zm.516 10.842l7.869-4.66.022 10.15-4.649 3.421-3.277-1.957.035-6.954zm4.827 9.859l3.083 1.833v-4.088l-3.083 2.255zm-7.148-10.476l-4.675 2.77v-4.957l4.68 2.187h-.005zm-3.558 4.093l4.167 2.488.026-4.969-4.18 2.486-.013-.005zm4.212-21.727L94.403 9.37l3.698 2.286.035-4.676v.01zm-5.317 3.4l4.696 2.905-4.703 2.023v-4.904l.007-.024z" clip-rule="evenodd"/><path fill="url(#paint0_linear)" fill-rule="evenodd" d="M109.458.914l.01 13.189 6.325 4.211 8.552-5.09.009-2.766L109.458.914z" clip-rule="evenodd"/><path fill="url(#paint1_linear)" fill-rule="evenodd" d="M124.38 15.55l-14.884 8.795v12.741l14.867-7.96.017-13.576z" clip-rule="evenodd"/><path fill="#275FA1" fill-rule="evenodd" d="M146.092 14.556c-1.319-3.157-3.973-4.983-7.243-4.983-4.546 0-8.156 3.97-8.156 9.399 0 5.575 3.674 9.497 8.282 9.497 3.083 0 5.715-1.905 7.178-5.08h-1.868c-1.274 2.366-3.399 3.427-5.31 3.427-3.738 0-6.712-3.354-6.712-7.844 0-4.169 2.656-7.747 6.607-7.747 3.377 0 4.926 2.566 5.353 3.333l1.869-.002zM149.248 28.369h1.725l2.302-6.333h7.409l2.305 6.332h1.722l-6.828-18.895h-1.764l-6.878 18.895h.007zm4.654-8.045l3.099-8.656 3.059 8.656h-6.158zM169.326 28.435h5.806c6.923 0 7.639-3.895 7.639-5.39 0-1.985-1.058-4.152-3.69-4.847 1.114-.619 2.544-1.755 2.544-3.81 0-4.794-4.805-5.027-7.008-5.027h-5.291v19.074zm2.116-1.728v-7.452h3.69c2.089 0 5.492.336 5.492 3.81 0 3.332-3.517 3.635-5.492 3.635l-3.69.007zm0-9.18V11.08h3.175c1.547 0 4.893.076 4.893 3.223 0 2.94-3.119 3.224-4.893 3.224h-3.175z" clip-rule="evenodd"/><path fill="#275FA1" d="M189.499 9.404h-2.118v18.993h2.118V9.404z"/><path fill="#275FA1" fill-rule="evenodd" d="M194.176 28.428h1.681V11.692l10.094 16.736h1.681V9.375h-1.681v15.81l-9.503-15.81h-2.272v19.053z" clip-rule="evenodd"/><defs><linearGradient id="paint0_linear" x1="123.289" x2="106.193" y1=".914" y2="11.017" gradientUnits="userSpaceOnUse"><stop stop-color="#39AFFD"/><stop offset="1" stop-color="#3A76FF"/></linearGradient><linearGradient id="paint1_linear" x1="123.315" x2="104.541" y1="15.55" y2="24.508" gradientUnits="userSpaceOnUse"><stop stop-color="#39AFFD"/><stop offset="1" stop-color="#3A76FF"/></linearGradient></defs></svg>
